X:1
T:Carmen
T:Prelude
T:Georges Bizet
T:Arranged by Me
%%score { ( 1 3 ) | 2 } { ( 4 7 ) | ( 5 6 ) }
L:1/8
Q:1/4=132
M:2/4
K:A
V:1 treble nm="Piano" snm="Pno."
V:3 treble 
V:2 bass 
V:4 bass nm="Piano" snm="Pno."
V:7 bass 
V:5 bass 
V:6 bass 
V:1
|:!f!"^Allegro" [Acea]a/a/ a/e/d/e/ | aa/a/ a/b/c'/b/ | aa/a/ b/a/g/a/ | !trill(!Tb4 | %4
 [dfad']d'/d'/ d'/a/=g/a/ | d'd'/d'/ d'/e'/f'/e'/ | d'd'/c'/ bb/a/ | !trill(!Tg4 | %8
 [Acea]a/a/ a/e/d/e/ | aa/a/ a/b/c'/b/ | aa/a/ b/a/g/a/ | !trill(!Tb4 | %12
 [=g=c'e'][c'e']/[c'e']/ [c'e']/[gd']/[ec']/[gd']/ | %13
 [=g=c'e'][c'e']/[c'e']/ [c'e']/[gd']/[ec']/[gd']/ |!mp! [EGBe]E/F/ GG/c/ | B2!f! A2 :|!mp! cf cB | %17
 AG/F/ .c!tenuto!c | FG Ac | =f_e/f/ c2 | cf cB | AG/F/ .c!tenuto!c | FG Ac | =f_e/f/ c2 | %24
!f! [Dd]/[Dd]/[Dd]/ z/ [Ed]/[Ed]/[Ed]/ z/ | [Fd]/[Fd]/[Fd]/ z/ [Dd]/[Dd]/[Dd]/ z/ | %26
 [Cc][G,G] [Cc][Dd] | [Cc][G,G] [Cc]2 | [Dd]/[Dd]/[Dd]/ z/ [Ed]/[Ed]/[Ed]/ z/ | %29
 [Fd]/[Fd]/[Fd]/ z/ [Dd]/[Dd]/[Dd]/ z/ |!pp!!<(! !trill(!Tg4-!<)! |!p! g4- |!mp! g4- |!mf! g2 z e | %34
!f! [Acea]a/a/ a/e/d/e/ | aa/a/ a/b/c'/b/ | aa/a/ b/a/g/a/ | !trill(!Tb4 | %38
 [dfad']d'/d'/ d'/a/=g/a/ | d'd'/d'/ d'/e'/f'/e'/ | d'd'/c'/ bb/a/ | !trill(!Tg4 | %42
 [Acea]a/a/ a/e/d/e/ | aa/a/ a/b/c'/b/ | aa/a/ b/a/g/a/ | !trill(!Tb4 | %46
 [=g=c'e'][c'e']/[c'e']/ [c'e']/[gd']/[ec']/[gd']/ | %47
 [=g=c'e'][c'e']/[c'e']/ [c'e']/[gd']/[ec']/[gd']/ | [EGBe]E/F/ GG/c/ | B2 A2 | %50
[K:F]!mf![Q:1/4=120]"^meno mosso" z4 | z4 | z4 | z4 | c2 d>c | A2 A2 | !trill(!TA>G A>!trill)!B | %57
 A4 | B2 G>c | A4 | F2 D>G | C4 | G4 | z d cB | (!trill(!TAG) .A!trill)!.B |{/B} A4 | E2 A2 | %67
 A2 ^G>=B | e4- | e4 | z !trill(!Td .^c!trill)!.d | .G.A B2 | z (!trill(!TA F)!trill)!.d | %73
 .c z z2 | z (!trill(!TF C)!trill)!.B | A2 G2 |!<(! FC/D/ E/F/G/A/!<)! | B/c/d/e/ f/g/a/b/ | %78
!ff![Q:1/4=124]"^poco piu mosso" c'2 d'>c' | a2 a2 | !trill(!T[fa]>g a>!trill)!b | [fa]4 | %82
 [gb]2 g>c' | [fa]4 | [df]2 d>g | c4 | g4 | z d' c'b | (!trill(!Tag) .a!trill)!.b |{/b} a4 | %90
 e2 a2 | a2 ^g>=b | !trill(!Te'3 ^d'/!trill)!e'/ | !trill(!Tf'3 e'/!trill)!f'/ | %94
 _a'!trill(!T_g' f'!trill)!g' | =b^c' d'2 | z !trill(!T^c' a!trill)!^f' | e' z z2 | %98
 z !trill(!Ta e!trill)!d' | ^c' z =b z ||[K:A][Q:1/4=132]"^a tempo" [Acea]a/a/ a/e/d/e/ | %101
 aa/a/ a/b/c'/b/ | aa/a/ b/a/g/a/ | !trill(!Tb4 | [dfad']d'/d'/ d'/a/=g/a/ | %105
 d'd'/d'/ d'/e'/f'/e'/ | d'd'/c'/ bb/a/ | !trill(!Tg4 | [Acea]a/a/ a/e/d/e/ | aa/a/ a/b/c'/b/ | %110
 aa/a/ b/a/g/a/ | !trill(!Tb4 | [=g=c'e'][c'e']/[c'e']/ [c'e']/[gd']/[ec']/[gd']/ | %113
 [=g=c'e'][c'e']/[c'e']/ [c'e']/[gd']/[ec']/[gd']/ | %114
 [=c'e']/[=gd']/[ec']/[gd']/ [c'e']/[gd']/[ec']/[gd']/ | %115
 [=c'e']/[=gd']/[ec']/[gd']/ [c'e']/[gd']/[ec']/[gd']/ | !trill(!Te4 | !trill(!Te3!fff! !trill)!e | %118
!ff! !^!a2 !^![A,A]2 |] %119
V:2
|: .[A,,A,]2 .[E,,E,]2 | .[A,,A,]2 .[E,,E,]2 | .[A,,A,]2 .[G,,G,]2 | .[F,,F,]2 .[E,,E,]2 | %4
 [D,,D,]2 [A,,,A,,]2 | [D,,D,]2 [A,,,A,,]2 | [D,,D,]2 [A,,,A,,]2 | [C,,C,]2 [E,,E,]2 | %8
 .[A,,A,]2 .[E,,E,]2 | .[A,,A,]2 .[E,,E,]2 | .[A,,A,]2 .[G,,G,]2 | .[F,,F,]2 .[E,,E,]2 | %12
 [=C,=C]2 [=G,,=G,]2 | [=C,=C]2 [=G,,=G,]2 | [E,,E,]2 [B,,,B,,]2 | [E,,B,,E,][G,,B,,E,] [A,,A,]2 :| %16
 F,2 F,G, | A,B,/^B,/ C/C/C/ z/ | C,^E, F,A, | A,B,/A,/ C/C/C/ z/ | F,2 F,G, | %21
 A,B,/^B,/ C/C/C/ z/ | C,^E, F,A, | C_E/=F/ C2 | %24
 [D,,D,]/[D,,D,]/[D,,D,]/ z/ [E,,D,]/[E,,D,]/[E,,D,]/ z/ | %25
 [F,,D,]/[F,,D,]/[F,,D,]/ z/ [D,,D,]/[D,,D,]/[D,,D,]/ z/ | [C,,C,]2 [C,,C,][D,,D,] | %27
 [C,,C,]2 [C,,C,][C,,C,] | [D,,D,]/[D,,D,]/[D,,D,]/ z/ [E,,D,]/[E,,D,]/[E,,D,]/ z/ | %29
 [F,,D,]/[F,,D,]/[F,,D,]/ z/ [D,,D,]/[D,,D,]/[D,,D,]/ z/ | z4 | B,,4 | B,,4 | [G,,B,,E,]4 | %34
 .[A,,A,]2 .[E,,E,]2 | .[A,,A,]2 .[E,,E,]2 | .[A,,A,]2 .[G,,G,]2 | .[F,,F,]2 .[E,,E,]3/2 z/ | %38
 [D,,D,]2 [A,,,A,,]2 | [D,,D,]2 [A,,,A,,]2 | [D,,D,]2 [A,,,A,,]2 | [C,,C,]2 [E,,E,]2 | %42
 .[A,,A,]2 .[E,,E,]2 | .[A,,A,]2 .[E,,E,]2 | .[A,,A,]2 .[G,,G,]2 | .[F,,F,]2 .[E,,E,]2 | %46
 [=C,=C]2 [=G,,=G,]2 | [=C,=C]2 [=G,,=G,]2 | [E,,E,]2 [B,,,B,,]2 | [E,,B,,E,][G,,B,,E,] [A,,A,]2 | %50
[K:F] F,2 C,2 | F,2 C,2 | F,2 C,2 | F,2 C,2 | F,2 C,2 | F,2 C,2 | F,2 C,2 | F,2 C,2 | G,2 C,2 | %59
 F,2 E,2 | D,2 G,,2 | C,4 | B,,2 D,2 | B,,2 G,,2 | A,,2 D,2 | F,2 A,2 | A,2 E,2 | ^G,2 E,2 | %68
 A,2 E,2 | A,2 E,2 | B,,2 D,2 | B,,2 G,,2 | F,2 z2 | z4 | z4 | z2 [C,E,]2 | A,E,/F,/ G,/A,/B,/C/ | %77
[I:staff -1] D/E/F/G/ A/B/c/d/ |[I:staff +1] F,2 C,2 | F,2 C,2 | F,2 C,2 | F,2 C,2 | G,2 C,2 | %83
 F,2 E,2 | D,2 G,,2 | C,4 | B,,2 D,2 | B,,2 G,,2 | A,,2 D,2 | F,2 A,2 | A,2 E,2 | ^G,2 E,2 | %92
 A,2 E,2 | ^G,2 F,2 | ^F,2 D,2 | A,,2 D,2 | [^C,E,]2 z2 | z4 | z4 | z2 E,2 || %100
[K:A] .[A,,A,]2 .[E,,E,]2 | .[A,,A,]2 .[E,,E,]2 | .[A,,A,]2 .[G,,G,]2 | .[F,,F,]2 .[E,,E,]2 | %104
 [D,,D,]2 [A,,,A,,]2 | [D,,D,]2 [A,,,A,,]2 | [D,,D,]2 [A,,,A,,]2 | [C,,C,]2 [E,,E,]2 | %108
 .[A,,A,]2 .[E,,E,]2 | .[A,,A,]2 .[E,,E,]2 | .[A,,A,]2 .[G,,G,]2 | .[F,,F,]2 [E,,E,]2 | %112
 [=C,=C]2 [=G,,=G,]2 | [=C,=C]2 [=G,,=G,]2 | [=C,=C][=G,,=G,] [C,C][G,,G,] | %115
 [=C,=C][=G,,=G,] [C,C][G,,G,] | [E,,E,](3[E,,E,]/[E,,E,]/[E,,E,]/ (3[E,,E,][E,,E,][E,,E,] | %117
 (3!trill(!T[E,,E,][E,,E,][E,,E,] [E,,E,]!trill)![G,,G,] | !^![A,,C,E,A,]2 !^![A,,,A,,]2 |] %119
V:3
|: x4 | x4 | x4 | x/4x/4x/4x/4x/4x/4x/4x/4 x/4x/4x/4x/4x/{^ab}!trill)!x/ | x4 | x4 | x4 | %7
 x/4x/4x/4x/4x/4x/4x/4x/4 x/4x/4x/4x/4x/{fg}!trill)!x/ | x4 | x4 | x4 | %11
 x/4x/4x/4x/4x/4x/4x/4x/4 x/4x/4x/4x/4x/{^ab}!trill)!x/ | x4 | x4 | x4 | x4 :| x4 | x4 | x4 | x4 | %20
 x4 | x4 | x4 | x4 | x4 | x4 | x4 | x4 | x4 | x4 | %30
 x/4x/4x/4x/4x/4x/4x/4x/4 x/4x/4x/4x/4x/4x/4x/4!trill)!x/4 | %31
 x/4x/4x/4x/4x/4x/4x/4x/4 x/4x/4x/4x/4x/4x/4x/4x/4 | %32
 x/4x/4x/4x/4x/4x/4x/4x/4 x/4x/4x/4x/4x/4x/4x/4x/4 | x/4x/4x/4x/4x/4x/4x/4x/4 x/4x/4x/4x/4 x | x4 | %35
 x4 | x4 | x/4x/4x/4x/4x/4x/4x/4x/4 x/4x/4x/4x/4x/{^ab}!trill)!x/ | x4 | x4 | x4 | %41
 x/4x/4x/4x/4x/4x/4x/4x/4 x/4x/4x/4x/4x/{fg}!trill)!x/ | x4 | x4 | x4 | %45
 x/4x/4x/4x/4x/4x/4x/4x/4 x/4x/4x/4x/4x/{^ab}!trill)!x/ | x4 | x4 | x4 | x4 |[K:F] x4 | x4 | x4 | %53
 x4 | x4 | x4 | A/4x/4x x5/2 | x4 | x4 | x4 | x4 | x4 | x4 | x4 | A/4x/4x/ x3 | x4 | x4 | x4 | x4 | %69
 x4 | x d/4x/4x/ x2 | x4 | x A/4x/4x/ x2 | x4 | x F/4x/4x/ x2 | x4 | x4 | x4 | a2 z2 | f2 f2 | %80
 a/4x/4x x5/2 | x4 | x4 | x4 | x4 | x4 | x4 | x4 | a/4x/4x/ x3 | x4 | x4 | x4 | %92
 e'/4x/4x/4x/4x/4x/4x/4x/4 x/4x/4x/4x/4 z | f'/4x/4x/4x/4x/4x/4x/4x/4 x/4x/4x/4x/4 z | %94
 x _g'/4x/4x/ x2 | x4 | x ^c'/4x/4x/ x2 | x4 | x a/4x/4x/ x2 | x4 ||[K:A] x4 | x4 | x4 | %103
 x/4x/4x/4x/4x/4x/4x/4x/4 x/4x/4x/4x/4x/{^ab}!trill)!x/ | x4 | x4 | x4 | %107
 x/4x/4x/4x/4x/4x/4x/4x/4 x/4x/4x/4x/4x/{fg}!trill)!x/ | x4 | x4 | x4 | %111
 x/4x/4x/4x/4x/4x/4x/4x/4 x/4x/4x/4x/4x/{/^ab}!trill)!x/ | x4 | x4 | x4 | x4 | %116
 x/4x/4x/4x/4x/4x/4x/4x/4 x/4x/4x/4x/4x/4x/4x/4!trill)!x/4 | %117
 x/4x/4x/4x/4x/4x/4x/4x/4 x/4x/4x/4x/4 x | x4 |] %119
V:4
|:!mf! z [C,E,A,] z [D,E,A,] | z [C,E,A,] z [D,E,A,] | z [C,E,A,] z [C,E,A,] | %3
 z [C,F,A,] z [C,E,A,] | z [F,A,D] z [=G,A,D] | z [F,A,D] z [=G,A,D] | z [F,A,D] z [F,B,D] | %7
 z [^E,G,C] z [G,B,D] | z [C,E,A,] z [D,E,A,] | z [C,E,A,] z [D,E,A,] | z [C,E,A,] z [C,E,A,] | %11
 z [C,F,A,] z [C,E,A,] | z [E,=G,=C] z [E,G,C] | z [E,=G,=C] z [E,G,C] |!p! G,G,/G,/ G,G, | %15
 z [B,,E,G,]!mf! [C,E,A,] z :|!p! [C,F,]4- | [C,F,]2[K:treble] [C=F]/[CF]/[CF]/ z/ | %18
[K:bass] [C,F,]4- | [C,F,]2[K:treble] [C=F]/[CF]/[CF]/ z/ |[K:bass] [C,F,]4- | %21
 [C,F,]2[K:treble] [C=F]/[CF]/[CF]/ z/ |[K:bass] [C,F,]4 | G,,2 C,2 | %24
[K:treble]!mf! [Dd]/[Dd]/[Dd]/ z/ [Dd]/[Dd]/[Dd]/ z/ | [Dd]/[Dd]/[Dd]/ z/ [Dd]/[Dd]/[Dd]/ z/ | %26
 [G,G]3 [A,G] | [G,G]3 [G,G] | [Dd]/[Dd]/[Dd]/ z/ [Dd]/[Dd]/[Dd]/ z/ | %29
 [Dd]/[Dd]/[Dd]/ z/ [Dd]/[Dd]/[Dd]/ z/ | z G/G/ G2 | z G/G/ G2 | z G/G/ G2 |!mf! z G/G/ GE | %34
[K:bass]!mf! z [C,E,A,] z [D,E,A,] | z [C,E,A,] z [D,E,A,] | z [C,E,A,] z [C,E,A,] | %37
 z [C,F,A,] z [C,E,A,]/ z/ | z [F,A,D] z [=G,A,D] | z [F,A,D] z [=G,A,D] | z [F,A,D] z [F,B,D] | %41
 z [^E,G,C] z [G,B,D] | z [C,E,A,] z [D,E,A,] | z [C,E,A,] z [D,E,A,] | z [C,E,A,] z [C,E,A,] | %45
 z [C,F,A,] z [C,E,A,] | z [E,=G,=C] z [E,G,C] | z [E,=G,=C] z [E,G,C] | G,G,/G,/ G,G, | %49
 z [B,,E,G,] [C,E,A,] z |[K:F][K:treble]!p! .[CFA]2 .[CFA]2 | .[CFA]2 .[CFA]2 | .[CFA]2 .[CFA]2 | %53
 .[CFA]2 .[CFA]2 | .[CFA]2 .[CFA]2 | .[CFA]2 .[CFA]2 | .[CFA]2 .[CFA]2 | .[CFA]2 .[CFA]2 | %58
 .[CEG]2 .[CEG]2 | .[CFA]2 .[CFA]2 | .[DFA]2 .[=B,DG]2 | .[CEG]2 .[CEG]2 | .[B,DG]2 .[B,DG]2 | %63
 .[B,DG]2 .[B,DG]2 | .[DFA]2 .[DFA]2 | .[DFA]2 .[DFA]2 | .[CEA]2 .[CEA]2 | .[=B,E^G]2 .[B,EG]2 | %68
 .[^CEA]2 .[CEA]2 | .[^CEA]2 .[CEA]2 | .[B,DG]2 .[B,DG]2 | .[B,DG]2 .[B,DG]2 | .[CFA]2 z2 | z4 | %74
 z4 | z4 |!<(! FE/F/ G/A/!mp!B/c/!<)! | d/e/f/g/ a/!mf!b/c'/d'/ |!f! .[CFA]2 .[CFA]2 | %79
 .[CFA]2 .[CFA]2 | .[CFA]2 .[CFA]2 | .[CFA]2 .[CFA]2 | .[CEG]2 .[CEG]2 | .[CFA]2 .[CFA]2 | %84
 .[DFA]2 .[=B,DG]2 | .[CEG]2 .[CEG]2 | .[B,DG]2 .[B,DG]2 | .[B,DG]2 .[B,DG]2 | .[DFA]2 .[DFA]2 | %89
 .[DFA]2 .[DFA]2 | .[CEA]2 .[CEA]2 | .[=B,E^G]2 .[B,EG]2 | .[^CEA]2 .[CEA]2 | .[^C^E^G]2 .[CEG]2 | %94
 .[D^FA]2 .[DFA]2 | .[D^FA]2 .[DFA]2 | .[^CEA]2 z2 | z !trill(!T^C A,!trill)![D^F] | [^CE] z z2 | %99
 z2 [^G=B]2 ||[K:A][K:bass] z [C,E,A,] z [D,E,A,] | z [C,E,A,] z [D,E,A,] | z [C,E,A,] z [C,E,A,] | %103
 z [C,F,A,] z [C,E,A,] | z [F,A,D] z [=G,A,D] | z [F,A,D] z [=G,A,D] | z [F,A,D] z [F,B,D] | %107
 z [^E,G,C] z [G,B,D] | z [C,E,A,] z [D,E,A,] | z [C,E,A,] z [D,E,A,] | z [C,E,A,] z [C,E,A,] | %111
 z [C,F,A,] z [C,E,A,] | z [E,=G,=C] z [E,G,C] | z [E,=G,=C] z [E,G,C] | z [E,=G,=C] z [E,G,C] | %115
 z [E,=G,=C] z [E,G,C] | !trill(!TE,4 | E,3 E, |!8va(! !^![Acea]2 !^![A,,A,]2!8va)! |] %119
V:5
|: A,, z E,, z | A,, z E,, z | A,, z G,, z | F,, z E,, z | D, z A,, z | D, z A,, z | D, z A,, z | %7
 C, z E, z | A,, z E,, z | A,, z E,, z | A,, z G,, z | F,, z E,, z | =C, z =G,, z | =C, z =G,, z | %14
 [E,,B,,E,][E,,B,,E,]/[E,,B,,E,]/ [E,,B,,E,]/[E,,B,,E,]/[E,,B,,E,]/[E,,B,,E,]/ | E, z A,, z :| %16
 F,,2 F,,F,, | F,,2 [C,,G,,]2 | F,,2 F,,F,, | F,,2 [C,,G,,]2 | F,,2 F,,F,, | F,,2 [C,,G,,]2 | %22
 F,,2 F,,F,, | =F,,2 C,,2 | [D,,D,]/[D,,D,]/[D,,D,]/ z/ [D,,D,]/[D,,D,]/[D,,D,]/ z/ | %25
 [D,,D,]/[D,,D,]/[D,,D,]/ z/ [D,,D,]/[D,,D,]/[D,,D,]/ z/ | %26
 [C,,C,]/[C,,C,]/[C,,C,]/ z/ [C,,C,]/[C,,C,]/[C,,C,]/ z/ | %27
 [C,,C,]/[C,,C,]/[C,,C,]/ z/ [C,,C,]/[C,,C,]/[C,,C,]/ z/ | %28
 [D,,D,]/[D,,D,]/[D,,D,]/ z/ [D,,D,]/[D,,D,]/[D,,D,]/ z/ | %29
 [D,,D,]/[D,,D,]/[D,,D,]/ z/ [D,,D,]/[D,,D,]/[D,,D,]/ z/ | G,,4 | G,,4 | [G,,D,]4 | [G,,D,E,]4 | %34
 A,, z E,, z | A,, z E,, z | A,, z G,, z | F,, z E,, z/ z/ | D, z A,, z | D, z A,, z | D, z A,, z | %41
 C, z E, z | A,, z E,, z | A,, z E,, z | A,, z G,, z | F,, z E,, z | =C, z =G,, z | =C, z =G,, z | %48
 [E,,B,,E,][E,,B,,E,]/[E,,B,,E,]/ [E,,B,,E,]/[E,,B,,E,]/[E,,B,,E,]/[E,,B,,E,]/ | E, z A,, z | %50
[K:F] .F,2 .C,2 | .F,2 .C,2 | .F,2 .C,2 | .F,2 .C,2 | .F,2 .C,2 | .F,2 .C,2 | .F,2 .C,2 | %57
 .F,2 .C,2 | .G,2 .C,2 | .F,2 .C,2 | .F,2 .D,2 | .G,2 .C,2 | .G,2 .D,2 | .G,2 .D,2 | .F,2 .D,2 | %65
 .F,2 .D,2 | .E,2 .C,2 | .E,2 .=B,,2 | .E,2 .^C,2 | .E,2 .^C,2 | .G,2 .D,2 | .G,2 .D,2 | .F,2 z2 | %73
 z (!trill(!TA, F,)!trill)!.[B,D] | .[A,C] z z2 | z4 | F,C,/D,/ E,/F,/G,/A,/ | %77
 B,/C/D/E/[I:staff -1] F/G/A/B/ |[I:staff +1] .F,2 .C,2 | .F,2 .C,2 | .F,2 .C,2 | .F,2 .C,2 | %82
 .G,2 .C,2 | .F,2 .C,2 | .F,2 .D,2 | .G,2 .C,2 | .G,2 .D,2 | .G,2 .D,2 | .F,2 .D,2 | .F,2 .D,2 | %90
 .E,2 .C,2 | .E,2 .=B,,2 | .E,2 .^C,2 | .^C,2 .^G,,2 | A,,2 ^F,,2 | A,,2 ^F,,2 | [A,,,E,,A,,]2 z2 | %97
 z4 | z4 | z2 E,,2 ||[K:A] A,, z E,, z | A,, z E,, z | A,, z G,, z | F,, z E,, z | D, z A,, z | %105
 D, z A,, z | D, z A,, z | C, z E, z | A,, z E,, z | A,, z E,, z | A,, z G,, z | F,, z E,, z | %112
 =C, z =G,, z | =C, z =G,, z | =C, z =G,, z | =C, z =G,, z | E,,(3E,,/E,,/E,,/ (3E,,E,,E,, | %117
 (3E,,E,,E,, E,,G,, | !^![A,,C,E,A,]2 !^![A,,,,A,,,]2 |] %119
V:6
|: x4 | x4 | x4 | x4 | x4 | x4 | x4 | x4 | x4 | x4 | x4 | x4 | x4 | x4 | x4 | x4 :| x4 | x4 | x4 | %19
 x4 | x4 | x4 | x4 | x4 | x4 | x4 | x4 | x4 | x4 | x4 | x4 | x4 | x4 | x4 | x4 | x4 | x4 | x4 | %38
 x4 | x4 | x4 | x4 | x4 | x4 | x4 | x4 | x4 | x4 | x4 | x4 |[K:F] x4 | x4 | x4 | x4 | x4 | x4 | %56
 x4 | x4 | x4 | x4 | x4 | x4 | x4 | x4 | x4 | x4 | x4 | x4 | x4 | x4 | x4 | x4 | x4 | %73
 x A,/4x/4x/ x2 | x4 | x4 | x4 | x4 | x4 | x4 | x4 | x4 | x4 | x4 | x4 | x4 | x4 | x4 | x4 | x4 | %90
 x4 | x4 | x4 | x4 | x4 | x4 | x4 | x4 | x4 | x4 ||[K:A] x4 | x4 | x4 | x4 | x4 | x4 | x4 | x4 | %108
 x4 | x4 | x4 | x4 | x4 | x4 | x4 | x4 | x4 | x4 | x4 |] %119
V:7
|: x4 | x4 | x4 | x4 | x4 | x4 | x4 | x4 | x4 | x4 | x4 | x4 | x4 | x4 | x4 | x4 :| x4 | %17
 x2[K:treble] x2 |[K:bass] x4 | x2[K:treble] x2 |[K:bass] x4 | x2[K:treble] x2 |[K:bass] x4 | x4 | %24
[K:treble] x4 | x4 | x4 | x4 | x4 | x4 | x4 | x4 | x4 | x4 |[K:bass] x4 | x4 | x4 | x4 | x4 | x4 | %40
 x4 | x4 | x4 | x4 | x4 | x4 | x4 | x4 | x4 | x4 |[K:F][K:treble] x4 | x4 | x4 | x4 | x4 | x4 | %56
 x4 | x4 | x4 | x4 | x4 | x4 | x4 | x4 | x4 | x4 | x4 | x4 | x4 | x4 | x4 | x4 | x4 | x4 | x4 | %75
 x4 | x4 | x4 | x4 | x4 | x4 | x4 | x4 | x4 | x4 | x4 | x4 | x4 | x4 | x4 | x4 | x4 | x4 | x4 | %94
 x4 | x4 | x4 | x ^C/4x/4x/ x2 | x4 | x4 ||[K:A][K:bass] x4 | x4 | x4 | x4 | x4 | x4 | x4 | x4 | %108
 x4 | x4 | x4 | x4 | x4 | x4 | x4 | x4 | %116
 x/4x/4x/4x/4x/4x/4x/4x/4 x/4x/4x/4x/4x/4x/4x/4!trill)!x/4 | %117
 x/4x/4x/4x/4x/4x/4x/4x/4 x/4x/4x/4x/4 x |!8va(! x4!8va)! |] %119

